X:954
T:Reel 954
M:4/4
K:Gmaj
L:1/8
gf|d>G (3GFG BcAF|DGFG FEFG|F>G (3GFG BddB|cAFA c2dc|BGGG DGFG|ABcB A2Ac|BGGB cAFA|GBAF G2|Bc|dggf g2fg|afdf efef|dggf g2fg|afge fedc|dggf g2fg|abag fdeg| (3fgf ge fdec|dcBA GABc|
